src/assets/img/icons/duotone-icons/Files/Folder-error.svg

<?xml version="1.0" encoding="UTF-8"?>
<svg width="24px" height="24px" viewBox="0 0 24 24" version="1.1" xmlns="http://www.w3.org/2000/svg" xmlns:xlink="http://www.w3.org/1999/xlink">
    <!-- Generator: Sketch 52.2 (67145) - http://www.bohemiancoding.com/sketch -->
    <title>Stockholm-icons / Files / Folder-error</title>
    <desc>Created with Sketch.</desc>
    <g id="Stockholm-icons-/-Files-/-Folder-error" stroke="none" stroke-width="1" fill="none" fill-rule="evenodd">
        <rect id="bound" x="0" y="0" width="24" height="24"></rect>
        <path d="M2,13.1500272 L2,5.5 C2,4.67157288 2.67157288,4 3.5,4 L6.37867966,4 C6.77650439,4 7.15803526,4.15803526 7.43933983,4.43933983 L10,7 L20.5,7 C21.3284271,7 22,7.67157288 22,8.5 L22,19.5 C22,20.3284271 21.3284271,21 20.5,21 L10.9835977,21 C10.9944753,20.8347382 11,20.6680143 11,20.5 C11,16.3578644 7.64213562,13 3.5,13 C2.98630124,13 2.48466491,13.0516454 2,13.1500272 Z" id="Combined-Shape" fill="#335EEA"></path>
        <path d="M4.5,16 C5.05228475,16 5.5,16.4477153 5.5,17 L5.5,19 C5.5,19.5522847 5.05228475,20 4.5,20 C3.94771525,20 3.5,19.5522847 3.5,19 L3.5,17 C3.5,16.4477153 3.94771525,16 4.5,16 Z M4.5,23 C3.94771525,23 3.5,22.5522847 3.5,22 C3.5,21.4477153 3.94771525,21 4.5,21 C5.05228475,21 5.5,21.4477153 5.5,22 C5.5,22.5522847 5.05228475,23 4.5,23 Z" id="Combined-Shape" fill="#335EEA" opacity="0.3"></path>
    </g>
</svg>

<svg width="24" height="24" viewBox="0 0 24 24" xmlns="http://www.w3.org/2000/svg"><g fill="none" fill-rule="evenodd"><path d="M0 0h24v24H0z"/><path d="M2 13.15V5.5A1.5 1.5 0 013.5 4h2.879a1.5 1.5 0 011.06.44L10 7h10.5A1.5 1.5 0 0122 8.5v11a1.5 1.5 0 01-1.5 1.5h-9.516A7.5 7.5 0 002 13.15z" fill="#335EEA"/><path d="M4.5 16a1 1 0 011 1v2a1 1 0 01-2 0v-2a1 1 0 011-1zm0 7a1 1 0 110-2 1 1 0 010 2z" fill="#335EEA" opacity=".3"/></g></svg>
